images/ICONOS/SERVICIOS/DESARROLLO ICON.svg

<svg width="45" height="45" viewBox="0 0 45 45" fill="none" xmlns="http://www.w3.org/2000/svg">
<path d="M43.0898 31.8317C42.4164 32.9777 41.8514 34.0568 41.1571 35.0483C40.9507 35.3426 40.3878 35.5117 39.9854 35.5117C39.4454 35.5138 38.8866 35.3489 38.3675 35.1631C37.1791 34.7373 36.3118 35.0128 35.4757 36.0043C34.9816 36.5908 34.7898 37.0563 35.0129 37.7493C35.0983 38.0123 35.1317 38.292 35.1713 38.5675C35.286 39.3461 35.7613 40.5359 35.4361 40.826C34.4249 41.7319 33.1156 42.308 31.9022 42.9781C31.8021 43.0323 31.5331 42.8591 31.3872 42.738C30.9598 42.3832 30.5178 42.0346 30.1488 41.6213C29.2189 40.5776 28.1869 40.0015 26.8317 40.7905C26.4626 41.0055 26.0352 41.2915 25.8705 41.6526C25.4869 42.5001 25.293 43.4331 24.9261 44.2889C24.801 44.579 24.3965 44.9151 24.1004 44.936C23.0288 45.0132 21.9467 45.0132 20.8751 44.9318C20.5811 44.9088 20.2162 44.5623 20.0557 44.2701C19.793 43.79 19.5887 43.2473 19.5011 42.7088C19.2885 41.3896 18.6338 40.6799 17.2515 40.4816C16.5927 40.3877 16.1632 40.4086 15.6878 40.8719C14.9185 41.6213 14.0866 42.3101 13.1859 43.1075C12.0663 42.45 10.9196 41.8112 9.82087 41.1015C9.60612 40.9638 9.45601 40.5401 9.47686 40.2624C9.52272 39.6801 9.6499 39.0914 9.83755 38.5383C10.2608 37.2943 10.0898 36.3195 8.97022 35.4616C8.44899 35.0608 8.04452 34.8124 7.41488 35.0024C7.15009 35.0817 6.8728 35.1193 6.60176 35.1756C4.04149 35.6954 4.0394 35.6974 2.76761 33.3513C2.48823 32.8378 2.23179 32.3118 1.95866 31.7795C2.47989 31.1972 2.91981 30.6023 3.4598 30.1222C4.48766 29.2058 4.91715 28.2478 4.29793 26.8597C4.06025 26.3253 3.87887 25.9747 3.32428 25.8265C2.89062 25.7117 2.46738 25.5551 2.04206 25.4111C0.0176082 24.7202 0.0176082 24.7202 0.00718366 22.5807C-0.0032409 20.2992 -0.0032408 20.2992 2.10669 19.5833C2.30267 19.5165 2.50282 19.4622 2.70089 19.3975C3.89346 19.0071 4.75036 17.8111 4.6753 16.5754C4.66279 16.3625 4.50434 16.135 4.3584 15.9576C3.93933 15.4482 3.49524 14.9577 3.05324 14.4672C1.92322 13.2127 1.92113 13.2148 2.75301 11.6931C4.04149 9.33446 4.04149 9.33446 6.67473 9.86464C8.25927 10.184 9.10157 9.86255 9.9543 8.52457C10.0982 8.29914 10.0919 7.9276 10.0502 7.63954C9.96473 7.05718 9.79585 6.48943 9.68118 5.91123C9.33091 4.14744 9.333 4.14744 10.8362 3.2311C13.0963 1.86599 13.2109 1.75327 15.0144 3.61935C16.1778 4.82374 17.2807 4.60248 18.5295 4.17875C18.7651 4.09943 18.9757 3.78007 19.0862 3.52333C19.3197 2.9848 19.4803 2.41496 19.6658 1.85555C20.2684 0.0479226 20.2684 0.0479224 22.2073 0.0166124C24.7426 -0.0230469 24.9115 -0.0606187 25.4619 2.40034C25.8351 4.0723 26.9276 4.37287 28.2119 4.63379C28.46 4.68388 28.8123 4.53568 29.0292 4.36661C29.6046 3.91992 30.2176 3.47741 30.6575 2.91174C31.4226 1.92861 32.1419 2.06428 33.1156 2.61325C35.6508 4.04099 35.6738 3.99924 35.1067 6.87141C34.8502 8.16764 35.3986 9.42839 36.539 10.0149C36.783 10.1402 37.1457 10.0963 37.4397 10.0483C38.0881 9.94396 38.7657 9.87716 39.3662 9.63086C40.5337 9.15077 41.0883 9.68304 41.6471 10.6411C43.0898 13.1146 43.2399 13.2085 41.2447 15.1602C40.025 16.3542 40.5337 17.4354 40.836 18.6231C40.8861 18.8214 41.2113 19.003 41.4469 19.0948C42.1245 19.3557 42.8063 19.6563 43.5131 19.7732C44.7181 19.9715 44.9767 20.6436 44.9913 21.7791C45.0267 24.7076 45.083 24.7076 42.3309 25.6136C41.0383 26.0394 40.3065 27.0246 40.3231 28.4064C40.3252 28.6444 40.5108 28.9053 40.6713 29.1077C41.0383 29.569 41.4386 30.0053 41.8326 30.4457C42.2246 30.8861 42.6228 31.3182 43.0898 31.8317ZM11.4492 39.8095C11.6764 39.9932 11.9558 40.3146 12.3082 40.4691C12.5959 40.5943 13.0421 40.6444 13.2922 40.5046C13.7342 40.2541 14.1325 39.8742 14.4577 39.4755C15.373 38.3567 16.3446 38.3818 17.7665 38.6176C20.0098 38.9892 20.9689 40.1643 21.2837 42.1744C21.4359 43.1409 22.0176 43.2452 22.8286 43.2118C23.7856 43.1722 23.6626 42.3539 23.8023 41.8509C24.2318 40.3063 24.7718 39.3273 26.6399 38.7596C28.8374 38.0916 30.0675 38.7742 31.3309 40.2082C31.7833 40.7216 32.1753 40.8239 32.8362 40.4545C33.5055 40.0788 33.5805 39.6529 33.4117 39.0226C33.3137 38.6552 33.3032 38.2565 33.1656 37.9058C32.6757 36.643 33.053 35.8436 33.9829 34.7728C35.4757 33.0528 36.9497 32.5852 38.9825 33.4264C39.5705 33.6686 40.0354 33.5496 40.4107 32.8712C40.7735 32.2137 40.7026 31.8108 40.1751 31.3621C39.9124 31.1387 39.7352 30.8131 39.4683 30.5981C38.3049 29.6651 38.3425 28.6527 38.6031 27.1895C38.995 24.9894 40.1376 24.0564 42.1078 23.7558C43.1378 23.5993 43.4005 22.9021 43.0982 22.1402C42.9251 21.7061 42.2517 21.3429 41.7346 21.2009C40.2189 20.7814 39.2661 20.2199 38.7323 18.3997C38.1173 16.2978 38.6218 15.035 40.0688 13.77C40.54 13.3567 40.909 12.9852 40.4378 12.1899C39.9687 11.3988 39.46 11.4907 38.8032 11.643C38.4655 11.7224 38.1027 11.7328 37.79 11.8643C36.539 12.3903 35.7801 11.8914 34.7606 11.0335C33.028 9.5745 32.5381 8.08832 33.3866 6.04482C33.6222 5.47707 33.5576 4.9782 32.8571 4.60248C32.2149 4.25807 31.8084 4.26433 31.3434 4.81121C31.0536 5.15145 30.6304 5.38105 30.351 5.72755C29.5254 6.75243 28.6393 6.6084 27.3925 6.4435C25.0032 6.12832 24.0129 4.84878 23.6626 2.71762C23.5542 2.06011 23.2206 1.82007 22.5388 1.80963C21.8175 1.79711 21.4463 2.03297 21.3212 2.74267C21.2629 3.07873 21.0481 3.38974 20.9981 3.72789C20.7729 5.25581 19.8076 5.6858 18.4128 6.25147C16.1715 7.15946 14.9289 6.20972 13.6342 4.79451C13.1943 4.31443 12.8211 4.23302 12.2102 4.56908C11.5743 4.91975 11.3679 5.30382 11.5784 5.97594C11.6827 6.30574 11.6744 6.6752 11.8057 6.9883C12.3874 8.37846 11.8745 9.2447 10.8967 10.3865C9.46852 12.0542 8.05912 12.3653 6.16185 11.6472C5.51761 11.403 4.97345 11.426 4.55229 12.2212C4.17909 12.9247 4.44179 13.267 4.86503 13.7262C5.97003 14.9285 7.01666 15.849 6.38285 18.0324C5.76363 20.1677 4.65654 20.9275 2.83641 21.3157C2.12128 21.4681 1.80229 21.7729 1.80646 22.5681C1.80855 23.3551 2.19009 23.5847 2.83016 23.7203C3.16583 23.7913 3.47648 23.9938 3.81215 24.0501C5.2278 24.2881 5.71984 25.1209 6.21605 26.4986C6.9833 28.6256 6.43914 30.0116 4.88796 31.3182C4.4126 31.7169 4.16241 32.1051 4.55438 32.8107C4.94634 33.5162 5.38834 33.608 6.06177 33.441C6.79983 33.2574 7.54206 33.0382 8.29471 32.9776C8.69293 32.9463 9.20582 33.1112 9.51021 33.3722C10.2733 34.0234 10.9092 34.8249 11.6744 35.4741C12.1518 35.879 12.2394 36.2443 12.0851 36.8204C11.837 37.718 11.6889 38.6448 11.4492 39.8095Z" fill="url(#paint0_linear_1_1726)"/>
<path d="M35.5994 22.5264C35.5952 29.8029 29.7908 35.6161 22.5165 35.6265C15.2464 35.639 9.42954 29.8404 9.40244 22.5557C9.37533 15.25 15.2527 9.36164 22.5395 9.39504C29.8096 9.42844 35.6035 15.2521 35.5994 22.5264ZM22.479 33.8147C28.6232 33.8439 33.7271 28.7655 33.7897 22.5619C33.8522 16.4064 28.6337 11.1734 22.4665 11.2089C16.3035 11.2444 11.1746 16.3939 11.2059 22.5202C11.2392 28.7133 16.3014 33.7855 22.479 33.8147Z" fill="url(#paint1_linear_1_1726)"/>
<defs>
<linearGradient id="paint0_linear_1_1726" x1="0.00585937" y1="44.9944" x2="45" y2="44.9944" gradientUnits="userSpaceOnUse">
<stop stop-color="#1723FF"/>
<stop offset="1" stop-color="#30E35E"/>
</linearGradient>
<linearGradient id="paint1_linear_1_1726" x1="9.40234" y1="35.6271" x2="35.5994" y2="35.6271" gradientUnits="userSpaceOnUse">
<stop stop-color="#1723FF"/>
<stop offset="1" stop-color="#30E35E"/>
</linearGradient>
</defs>
</svg>

<svg xmlns="http://www.w3.org/2000/svg" width="45" height="45" fill="none"><path fill="url(#a)" d="M43.09 31.832c-.674 1.146-1.239 2.225-1.933 3.216-.206.295-.77.464-1.172.464-.54.002-1.098-.163-1.617-.349-1.189-.426-2.056-.15-2.892.841-.494.587-.686 1.052-.463 1.745.085.263.119.543.158.819.115.778.59 1.968.265 2.258-1.011.906-2.32 1.482-3.534 2.152-.1.054-.369-.119-.515-.24-.427-.355-.87-.703-1.238-1.117-.93-1.043-1.962-1.62-3.317-.83-.37.215-.797.5-.962.862-.383.847-.577 1.78-.944 2.636-.125.29-.53.626-.826.647a21.893 21.893 0 0 1-3.225-.004c-.294-.023-.659-.37-.82-.662a4.993 4.993 0 0 1-.554-1.561c-.213-1.32-.867-2.03-2.25-2.227-.658-.094-1.088-.073-1.563.39-.77.75-1.601 1.438-2.502 2.236-1.12-.658-2.266-1.297-3.365-2.006-.215-.138-.365-.562-.344-.84a7.171 7.171 0 0 1 .36-1.724c.424-1.244.253-2.218-.867-3.076-.521-.401-.925-.65-1.555-.46-.265.08-.542.117-.813.174-2.56.52-2.563.521-3.834-1.825-.28-.513-.536-1.04-.81-1.572.522-.582.962-1.177 1.502-1.657 1.028-.916 1.457-1.874.838-3.262-.238-.535-.42-.885-.974-1.034-.433-.114-.857-.27-1.282-.415-2.024-.69-2.024-.69-2.035-2.83-.01-2.282-.01-2.282 2.1-2.998.196-.066.396-.12.594-.185 1.192-.39 2.05-1.587 1.974-2.823-.012-.212-.17-.44-.317-.617-.419-.51-.863-1-1.305-1.49-1.13-1.255-1.132-1.253-.3-2.775 1.288-2.359 1.288-2.359 3.922-1.828 1.584.319 2.427-.002 3.28-1.34.143-.226.137-.597.095-.885-.085-.583-.254-1.15-.369-1.729-.35-1.764-.348-1.764 1.155-2.68 2.26-1.365 2.375-1.478 4.178.388 1.164 1.205 2.267.983 3.515.56.236-.08.447-.399.557-.656.234-.538.394-1.108.58-1.667.602-1.808.602-1.808 2.541-1.84 2.536-.039 2.704-.077 3.255 2.384.373 1.672 1.466 1.973 2.75 2.234.248.05.6-.098.817-.267.576-.447 1.189-.89 1.628-1.455.766-.983 1.485-.848 2.459-.299C35.65 4.041 35.674 4 35.106 6.871c-.256 1.297.293 2.557 1.433 3.144.244.125.607.081.9.033.65-.104 1.327-.17 1.927-.417 1.168-.48 1.722.052 2.281 1.01 1.443 2.474 1.593 2.568-.402 4.52-1.22 1.193-.711 2.274-.409 3.462.05.198.375.38.61.472.678.26 1.36.561 2.067.678 1.205.198 1.464.87 1.478 2.006.036 2.929.092 2.929-2.66 3.835-1.293.425-2.025 1.41-2.008 2.792.002.238.188.5.348.702.367.461.768.897 1.162 1.338.392.44.79.872 1.257 1.386Zm-31.64 7.977c.226.184.506.506.858.66.288.125.734.175.984.036.442-.25.84-.63 1.166-1.03.915-1.118 1.887-1.093 3.309-.857 2.243.371 3.202 1.546 3.517 3.556.152.967.734 1.071 1.545 1.038.957-.04.834-.858.973-1.361.43-1.545.97-2.524 2.838-3.091 2.197-.668 3.427.014 4.69 1.448.453.514.845.616 1.506.247.67-.376.745-.802.576-1.432-.098-.368-.109-.767-.246-1.117-.49-1.263-.113-2.062.817-3.133 1.493-1.72 2.967-2.188 5-1.347.588.243 1.052.124 1.428-.555.362-.657.292-1.06-.236-1.509-.263-.223-.44-.549-.707-.764-1.163-.933-1.126-1.945-.865-3.409.392-2.2 1.535-3.133 3.505-3.433 1.03-.157 1.293-.854.99-1.616-.173-.434-.846-.797-1.363-.94-1.516-.419-2.469-.98-3.003-2.8-.615-2.102-.11-3.365 1.337-4.63.471-.413.84-.785.369-1.58-.47-.791-.978-.7-1.635-.547-.337.08-.7.09-1.013.221-1.251.526-2.01.027-3.03-.83-1.732-1.46-2.222-2.946-1.373-4.99.235-.567.17-1.066-.53-1.442-.642-.344-1.049-.338-1.514.21-.29.34-.713.569-.992.916-.826 1.024-1.712.88-2.959.716-2.389-.316-3.38-1.595-3.73-3.726-.108-.658-.441-.898-1.123-.908-.722-.013-1.093.223-1.218.933-.058.336-.273.647-.323.985-.225 1.528-1.19 1.958-2.585 2.523-2.241.908-3.484-.041-4.779-1.456-.44-.48-.813-.562-1.424-.226-.636.35-.842.735-.632 1.407.105.33.096.7.228 1.012.581 1.39.069 2.257-.91 3.398-1.427 1.668-2.837 1.98-4.734 1.261-.644-.244-1.189-.221-1.61.574-.373.704-.11 1.046.313 1.505 1.105 1.202 2.152 2.123 1.518 4.306-.62 2.136-1.726 2.895-3.547 3.284-.715.152-1.034.457-1.03 1.252.003.787.384 1.017 1.024 1.152.336.071.646.274.982.33 1.416.238 1.908 1.07 2.404 2.449.767 2.127.223 3.513-1.328 4.82-.475.398-.726.786-.334 1.492.392.705.834.797 1.508.63.738-.184 1.48-.403 2.233-.463a1.83 1.83 0 0 1 1.215.394c.763.651 1.4 1.453 2.164 2.102.478.405.565.77.411 1.346-.248.898-.396 1.825-.636 2.99Z"/><path fill="url(#b)" d="M35.6 22.526a13.043 13.043 0 0 1-13.084 13.1c-7.27.013-13.086-5.786-13.114-13.07-.027-7.306 5.85-13.194 13.138-13.161A13.064 13.064 0 0 1 35.6 22.526ZM22.478 33.815c6.144.029 11.248-5.05 11.31-11.253.063-6.156-5.155-11.389-11.323-11.353-6.163.035-11.291 5.185-11.26 11.311.033 6.193 5.095 11.265 11.273 11.295Z"/><defs><linearGradient id="a" x1=".006" x2="45" y1="44.994" y2="44.994" gradientUnits="userSpaceOnUse"><stop stop-color="#1723FF"/><stop offset="1" stop-color="#30E35E"/></linearGradient><linearGradient id="b" x1="9.402" x2="35.599" y1="35.627" y2="35.627" gradientUnits="userSpaceOnUse"><stop stop-color="#1723FF"/><stop offset="1" stop-color="#30E35E"/></linearGradient></defs></svg>
